X:1
T:Title
%%score 1 { 2 | 3 }
L:1/8
Q:1/4=100
M:4/4
K:Ab
V:1 treble nm="Grand Piano, Soprano"
V:2 treble nm="Choir Pad, Bourbon Street, 87.87 D"
V:3 bass 
V:1
 [EA] [EA]2 [EB] [Ac]2 [Ad][Ac]- | [Ac][GB] A2 A [GB]2 [GB] | [FA]2 [GB][Ac] [Ae]4 | %3
w: By~William~A.~Stewart,~1904 * * * * *|||
 [Ac] [Ac]2 [GB] [FA]2 [GB][Ac]- | [Ac][Ad] [Ae]2 [Af] [Ae]2 A | [Ac]2 [EB][EB] [EA]4 | %6
w: |||
 [Ec] [Fd]2 [Fd] [Fd]2 [FA][EA]- | [EA][EB] [Ec]2 [Ec] [Ae]2 [Ae] | [Ac]2 A[Ac] [GB]4 | %9
w: |||
 [Ac] [Ae]2 [Af] [Ac]2 [GB][FA]- | [FA][GB] [Ac]2 [Ac] [Ae]2 A | [Ac]2 [EB][EB] [EA]4- | %12
w: |||
 [EA]4 z4 |] %13
w: |
V:2
 C C2 D E2 FE- | ED C2 E E2 E | C2 EE C4 | D E2 D C2 EE- | EB, C2 D C2 C | E2 DD C4 | %6
 A, A,2 A, A,2 A,A,- | A,G, A,2 A,[K:treble] C2 C | E2 CE E4 | E C2 D E2 DC- | CE E2 E C2 =D | %11
 E2 DD C4- | C4 z4 |] %13
V:3
 A, A,2 A, A,2 A,A,- | A,E, F,2 C, E,2 E, | F,2 E,A, A,4 | A, A,2 E, F,2 E,A,- | %4
 A,A, A,2 D, E,2 F, | E,2 E,E, A,4 | z D,2 D, D,2 D,D,- | D,E, z2 z A,2 A, | A,2 A,E, E,4 | %9
 A, A,2 A, A,2 E,F,- | F,E, A,2 A, A,2 F, | E,2 E,[A,,A,] [A,,A,]4- | [A,,A,]4 z4 |] %13

